img/contact-email.svg

<svg width="20" height="21" viewBox="0 0 20 21" fill="none" xmlns="http://www.w3.org/2000/svg">
<path d="M16.6666 4.08911H3.33329C2.41663 4.08911 1.67496 4.8415 1.67496 5.76109L1.66663 15.7929C1.66663 16.7125 2.41663 17.4649 3.33329 17.4649H16.6666C17.5833 17.4649 18.3333 16.7125 18.3333 15.7929V5.76109C18.3333 4.8415 17.5833 4.08911 16.6666 4.08911ZM16.3333 7.64206L10.4416 11.3371C10.175 11.5043 9.82496 11.5043 9.55829 11.3371L3.66663 7.64206C3.58307 7.595 3.50989 7.53142 3.45153 7.45518C3.39317 7.37893 3.35084 7.29159 3.32711 7.19846C3.30337 7.10532 3.29871 7.00832 3.31342 6.91333C3.32813 6.81834 3.36191 6.72733 3.41269 6.64581C3.46348 6.56429 3.53023 6.49396 3.6089 6.43907C3.68757 6.38418 3.77652 6.34587 3.87037 6.32646C3.96423 6.30706 4.06103 6.30696 4.15492 6.32617C4.24881 6.34538 4.33785 6.38351 4.41663 6.43824L9.99996 9.94102L15.5833 6.43824C15.6621 6.38351 15.7511 6.34538 15.845 6.32617C15.9389 6.30696 16.0357 6.30706 16.1295 6.32646C16.2234 6.34587 16.3124 6.38418 16.391 6.43907C16.4697 6.49396 16.5364 6.56429 16.5872 6.64581C16.638 6.72733 16.6718 6.81834 16.6865 6.91333C16.7012 7.00832 16.6966 7.10532 16.6728 7.19846C16.6491 7.29159 16.6067 7.37893 16.5484 7.45518C16.49 7.53142 16.4169 7.595 16.3333 7.64206Z" fill="#BDBDBD"/>
</svg>

<svg width="20" height="21" fill="none"
  xmlns="http://www.w3.org/2000/svg">
  <path d="M16.667 4.09H3.333c-.916 0-1.658.752-1.658 1.671l-.008 10.032c0 .92.75 1.672 1.666 1.672h13.334c.916 0 1.666-.753 1.666-1.672V5.76c0-.92-.75-1.672-1.666-1.672zm-.334 3.552l-5.891 3.695a.84.84 0 01-.884 0L3.667 7.642a.71.71 0 01-.254-.996.71.71 0 011.004-.208L10 9.941l5.583-3.503a.707.707 0 011.09.76.712.712 0 01-.34.444z" fill="#BDBDBD"/>
</svg>
